src/telerik-icons/solid/borders-inside.svg

<?xml version="1.0" encoding="utf-8"?>
<svg xmlns="http://www.w3.org/2000/svg" width="512" height="512" viewBox="0 0 512 512">
  <path d="M64 64H32V32h32v32zm0 32H32v32h32V96zm0 64H32v32h32v-32zm0 128H32v32h32v-32zm0 64H32v32h32v-32zM448 96h-32v32h32V96zm0 64h-32v32h32v-32zm0 128h-32v32h32v-32zm0 64h-32v32h32v-32zM128 32H96v32h32V32zm64 0h-32v32h32V32zM64 416H32v32h32v-32zm64 0H96v32h32v-32zm64 0h-32v32h32v-32zm128 0h-32v32h32v-32zm64 0h-32v32h32v-32zm64 0h-32v32h32v-32zM320 32h-32v32h32V32zm64 0h-32v32h32V32zm64 0h-32v32h32V32zm0 192H256V32h-32v192H32v32h192v192h32V256h192v-32z"/>
</svg>

<?xml version="1.0" encoding="utf-8"?>
<!-- Generator: Adobe Illustrator 19.2.1, SVG Export Plug-In . SVG Version: 6.00 Build 0)  -->
<svg xmlns="http://www.w3.org/2000/svg" width="512" height="512" viewBox="0 0 512 512">
<path d="M64,64H32V32h32V64z M64,96H32v32h32V96z M64,160H32v32h32V160z M64,288H32v32h32V288z M64,352H32v32h32V352z M448,96h-32
	v32h32V96z M448,160h-32v32h32V160z M448,288h-32v32h32V288z M448,352h-32v32h32V352z M128,32H96v32h32V32z M192,32h-32v32h32V32z
	 M64,416H32v32h32V416z M128,416H96v32h32V416z M192,416h-32v32h32V416z M320,416h-32v32h32V416z M384,416h-32v32h32V416z M448,416
	h-32v32h32V416z M320,32h-32v32h32V32z M384,32h-32v32h32V32z M448,32h-32v32h32V32z M448,224H256V32h-32v192H32v32h192v192h32V256
	h192V224z" />
</svg>
